X:1
T:Title
%%score 1 { 2 | 3 }
L:1/8
Q:1/4=103
M:4/4
K:C
V:1 treble nm="Grand Piano, Soprano"
V:2 treble nm="Choir Pad, Peace, J. Lee Austin, 1912"
V:3 bass 
V:1
 [EG]3 [EG] [CE][EG][FA][_E^F] | [EG]6 [CE]2 | [CE]3 [CE] [B,D][B,D][CE][C^F] | [DG]6 z2 | %4
w: By~J.~Lee~Austin,~1912 * * * * *||||
 [EG]3 [EG] [CE][EG][FA][_E^F] | [EG]6 [CE]2 | [CE]3 [CE] [B,D][CE][DF][B,D] | C6 [EG]2 | %8
w: ||||
 [EG]3 [Ec] [Ge][Gc][Fc][FA] | [EG]6 z2 | [FA]3 [FA] G[Gc][FB][Ec] | [Gd]6 [Gd]2 | %12
w: ||||
 [Ge]3 [Fd] [Ec][Ec][Gc][GB] | [FA]2 [Ac]4 [GB][FA] | [EG]2 [Gc]2 [Fd]2 [FB]2 | [Ec]8 |] %16
w: ||||
V:2
 C3 C G,CCC | C6[K:bass] G,2 | G,3 G, G,G,G,C | B,6 z2 | C3 C G,CCC | C6[K:bass] G,2 | %6
 G,3 G, G,G,G,F, | E,6[K:treble] C2 | C3 C CCA,C | C6 z2 | C3 C CCG,C | B,6 B,2 | %12
 C3 B, C[K:treble]CCC | C6 CC | C2 C2 B,2 G,2 | G,8 |] %16
V:3
 C,3 C, C,C,C,C, | C,6 C,2 | C,3 E, z2 C,A,, | G,,6 z2 | C,3 C, C,C,C,C, | C,6 C,2 | %6
 C,3 E, z2 G,,G,, | C,6 C,2 | C,3 C, C,E,F,F, | C,6 z2 | F,3 F, E,E,D,C, | G,6 G,2 | %12
 z2 z G, A,A,E,E, | F,6 F,F, | C,2 E,2 G,2 G,,2 | C,8 |] %16

